Obsidian-SemiLight/actions/16s/format-break-node.svg

<svg viewBox="0 0 16 16" xmlns="http://www.w3.org/2000/svg"><path d="m6 2v1.0058594h-4v.9960937h4v.9980469h4v-.9980469h4v-.9960937h-4v-1.0058594zm1 1h2v.0058594.9941406h-2zm-5 8v3h3v-1h2v-1h-2v-1zm9 0v1h-2v1h2v1h3v-3zm-8 1h1v1h-1zm9 0h1v1h-1z" fill="#4d4d4d"/><path d="m5.99975 7.0025 2.00025 3 2.00025-3z" fill="#3daee9"/></svg>

<svg xmlns="http://www.w3.org/2000/svg" viewBox="0 0 16 16">
  <defs id="defs3051">
    <style type="text/css" id="current-color-scheme">
      .ColorScheme-Text {
        color:#4d4d4d;
      }
      .ColorScheme-Highlight {
        color:#3daee9;
      }
      </style>
  </defs>
  <path 
        style="fill:currentColor;fill-opacity:1;stroke:none"
        d="M 6 2 L 6 3.0058594 L 2 3.0058594 L 2 4.0019531 L 6 4.0019531 L 6 5 L 10 5 L 10 4.0019531 L 14 4.0019531 L 14 3.0058594 L 10 3.0058594 L 10 2 L 6 2 z M 7 3 L 9 3 L 9 3.0058594 L 9 4 L 7 4 L 7 3 z M 2 11 L 2 14 L 5 14 L 5 13 L 7 13 L 7 12 L 5 12 L 5 11 L 2 11 z M 11 11 L 11 12 L 9 12 L 9 13 L 11 13 L 11 14 L 14 14 L 14 11 L 11 11 z M 3 12 L 4 12 L 4 13 L 3 13 L 3 12 z M 12 12 L 13 12 L 13 13 L 12 13 L 12 12 z "
        class="ColorScheme-Text"
        />
  <path 
        style="fill:currentColor;fill-opacity:1;stroke:none"
        d="m 5.99975,7.0025 2.00025,3 2.00025,-3 z"
        class="ColorScheme-Highlight"
        />
</svg>
